X:1
T:Ellis Kelly's Delight  " "
M:9/8
L:1/8
Q:80
C:Traditional
S:Jig
K:HP
{g}ABd |: \
{g}e3{g}efe{g}edB | \
{gef}e3{Gdc}d2B{g}ABd |
{g}e3{g}efe{g}edB | \
{g}d{e}d{c}d{g}d2B{g}ABd :: \
{gf}g3{fg}fed{g}e2B |
{gf}g3{fg}fed{g}ABd | \
{gf}g3{fg}fed{g}e2B | \
{g}d{e}d{c}d{g}d2B{g}ABd :|
